!!!COM: Palestrina, Giovanni Perluigi da
!!!OPR: Laudate Dominum
!!!OTL: Credo
**kern	**kern	**kern	**kern	**kern	**kern	**kern	**kern
*Ibass	*Itenor	*Icalto	*Icant	*Ibass	*Itenor	*Icalto	*Icant
!Bassus	!Tenor	!Altus	!Cantus	!Bassus	!Tenor	!Altus	!Cantus
*clefF4	*clefGv2	*clefG2	*clefG2	*clefF4	*clefGv2	*clefG2	*clefG2
*k[b-]	*k[b-]	*k[b-]	*k[b-]	*k[b-]	*k[b-]	*k[b-]	*k[b-]
*F:ion	*F:ion	*F:ion	*F:ion	*F:ion	*F:ion	*F:ion	*F:ion
*M4/2	*M4/2	*M4/2	*M4/2	*M4/2	*M4/2	*M4/2	*M4/2
=1	=1	=1	=1	=1	=1	=1	=1
0r	0r	0r	0r	0r	0r	1r	1f
.	.	.	.	.	.	1c	2.cc
.	.	.	.	.	.	.	4b-
=2	=2	=2	=2	=2	=2	=2	=2
0r	0r	0r	0r	1r	1F	1f	4a
.	.	.	.	.	.	.	4g
.	.	.	.	.	.	.	2a
.	.	.	.	1C	1c	1e	2g
.	.	.	.	.	.	.	2g
=3	=3	=3	=3	=3	=3	=3	=3
0r	0r	0r	0r	1F	1c	2.f	4a
.	.	.	.	.	.	.	4g
.	.	.	.	.	.	.	4a
.	.	.	.	.	.	8e	4b-
.	.	.	.	.	.	8d	.
.	.	.	.	1F	1A	2c	4cc
.	.	.	.	.	.	.	4b-
.	.	.	.	.	.	2F	4a
.	.	.	.	.	.	.	4g
=4	=4	=4	=4	=4	=4	=4	=4
0r	0r	0r	0r	2D	1.d	2A	4f
.	.	.	.	.	.	.	4e
.	.	.	.	4BB-	.	2B-	4d
.	.	.	.	4C	.	.	4e
.	.	.	.	4D	.	2.A	4f
.	.	.	.	4E	.	.	4g
.	.	.	.	[2F	4c	.	2a
.	.	.	.	.	4B-	4B-	.
=5	=5	=5	=5	=5	=5	=5	=5
0r	0r	0r	0r	2F]	2A	0c	2f
.	.	.	.	2E	2G	.	2.g
.	.	.	.	1F	2.A	.	.
.	.	.	.	.	.	.	4f
.	.	.	.	.	.	.	[2f
.	.	.	.	.	4F	.	.
=6	=6	=6	=6	=6	=6	=6	=6
0r	1r	0r	2r	0C	0G	1.c	2f]
.	.	.	2cc	.	.	.	4e
.	.	.	.	.	.	.	4d
.	2r	.	2cc	.	.	.	1e
.	2c	.	2cc	.	.	2G	.
=7	=7	=7	=7	=7	=7	=7	=7
2r	2c	2r	4a	0FF	0F	2.A	0f
.	.	.	4g	.	.	.	.
2F	2c	2c	4f	.	.	.	.
.	.	.	4g	.	.	4B-	.
2F	2A	2c	4a	.	.	1c	.
.	.	.	4b-	.	.	.	.
2F	2A	2F	2cc	.	.	.	.
=8	=8	=8	=8	=8	=8	=8	=8
4D	1.d	2A	2f	0r	0r	0r	0r
4C	.	.	.	.	.	.	.
4BB-	.	2B-	4d	.	.	.	.
4C	.	.	4e	.	.	.	.
4D	.	2.A	4f	.	.	.	.
4E	.	.	4g	.	.	.	.
[2F	4c	.	[2a	.	.	.	.
.	4B-	4B-	.	.	.	.	.
=9	=9	=9	=9	=9	=9	=9	=9
2F]	2A	1c	4a]	0r	0r	0r	0r
.	.	.	4f	.	.	.	.
2E	4G	.	2g	.	.	.	.
.	4A	.	.	.	.	.	.
1D	4B-	2.d	[1f	.	.	.	.
.	4c	.	.	.	.	.	.
.	2d	.	.	.	.	.	.
.	.	8c	.	.	.	.	.
.	.	8B-	.	.	.	.	.
=10	=10	=10	=10	=10	=10	=10	=10
0F	2c	2A	0f]	1r	1r	0r	0r
.	1B-	2d	.	.	.	.	.
.	.	1c	.	2r	2r	.	.
.	2A	.	.	[2F	2c	.	.
=11	=11	=11	=11	=11	=11	=11	=11
1BB-	1B-	1B-	1f	2F]	1d	1r	2r
.	.	.	.	2D	.	.	1f
1r	1r	1r	1r	2G	2.B-	2r	.
.	.	.	.	2G	.	[2B-	2e
.	.	.	.	.	4c	.	.
=12	=12	=12	=12	=12	=12	=12	=12
0r	0r	0r	0r	1F	2d	2B-]	2f
.	.	.	.	.	2c	2A	2f
.	.	.	.	2.D	2B-	2d	4f
.	.	.	.	.	.	.	4e
.	.	.	.	.	[2A	2d	4f
.	.	.	.	4E	.	.	4g
=13	=13	=13	=13	=13	=13	=13	=13
0r	0r	0r	0r	1.F	4A]	1c	2a
.	.	.	.	.	4G	.	.
.	.	.	.	.	4A	.	1f
.	.	.	.	.	4B-	.	.
.	.	.	.	.	2c	2A	.
.	.	.	.	2D	2F	2B-	2f
=14	=14	=14	=14	=14	=14	=14	=14
2r	0r	1r	1g	1C	1G	1c	1e
1C	.	.	.	.	.	.	.
.	.	1c	2e	1r	1r	1r	1r
2AA	.	.	[2a	.	.	.	.
=15	=15	=15	=15	=15	=15	=15	=15
2D	1.F	1A	2a]	0r	0r	0r	0r
2D	.	.	4g	.	.	.	.
.	.	.	4f	.	.	.	.
1C	.	1c	2a	.	.	.	.
.	2E	.	[2g	.	.	.	.
=16	=16	=16	=16	=16	=16	=16	=16
2.AA	2A	2c	2g]	0r	0r	0r	0r
.	2A	2c	1f	.	.	.	.
4BB-	.	.	.	.	.	.	.
2C	2G	2c	.	.	.	.	.
2C	2G	2c	2e	.	.	.	.
=17	=17	=17	=17	=17	=17	=17	=17
0FF	0F	0A	0f	2r	2r	2r	2r
.	.	.	.	1F	1c	1f	1a
.	.	.	.	2F	2c	2f	2a
=18	=18	=18	=18	=18	=18	=18	=18
0r	0r	0r	0r	2F	2A	2f	2cc
.	.	.	.	2G	2B-	2d	2b-
.	.	.	.	2.F	2.c	2.f	2.a
.	.	.	.	4F	4c	4f	4a
=19	=19	=19	=19	=19	=19	=19	=19
0r	0r	0r	0r	2C	2c	2e	2g
.	.	.	.	1D	1A	1d	1f
.	.	.	.	2C#	2A	2e	2e
=20	=20	=20	=20	=20	=20	=20	=20
0r	0r	0r	0r	0D	1A	2.f	4d
.	.	.	.	.	.	.	4e
.	.	.	.	.	.	.	4f
.	.	.	.	.	.	8e	4g
.	.	.	.	.	.	8d	.
.	.	.	.	.	1d	1f	1a
=21	=21	=21	=21	=21	=21	=21	=21
0r	0r	0r	0r	2AA	2c#	2e	1a
.	.	.	.	2.A	2.c#	2.e	.
.	.	.	.	.	.	.	2r
.	.	.	.	4A	4c#	4e	.
.	.	.	.	2A	2c#	2e	[2a
=22	=22	=22	=22	=22	=22	=22	=22
0r	0r	0r	0r	1D	0d	1f#	4a]
.	.	.	.	.	.	.	4a
.	.	.	.	.	.	.	2a
.	.	.	.	1G	.	2g	1b
.	.	.	.	.	.	2g	.
=23	=23	=23	=23	=23	=23	=23	=23
0r	0r	0r	0r	2A	1c	2e	2cc
.	.	.	.	2A	.	2.f	2cc
.	.	.	.	2F	[1d	.	2a
.	.	.	.	.	.	4e	.
.	.	.	.	[2G	.	4d	[2b-
.	.	.	.	.	.	4c	.
=24	=24	=24	=24	=24	=24	=24	=24
0r	0r	0r	0r	4G]	1d]	4B-	4b-]
.	.	.	.	4F	.	4c	4a
.	.	.	.	4D	.	2.d	4f
.	.	.	.	4E	.	.	4g
.	.	.	.	2.F	1A	.	2.a
.	.	.	.	.	.	4c	.
.	.	.	.	.	.	[2c	.
.	.	.	.	4E	.	.	4g
=25	=25	=25	=25	=25	=25	=25	=25
1r	1r	0r	0r	2D	2d	2c]	2.f
.	.	.	.	2D	2d	2B	.
.	.	.	.	.	.	.	4f
2r	2r	.	.	1C	1G	1c	1e
2C	2c	.	.	.	.	.	.
=26	=26	=26	=26	=26	=26	=26	=26
2D	2B-	1r	1r	0r	0r	0r	0r
1F	1A	.	.	.	.	.	.
.	.	1c	2r	.	.	.	.
2E	2G	.	2cc	.	.	.	.
=27	=27	=27	=27	=27	=27	=27	=27
1D	1F	2d	2b-	0r	0r	0r	0r
.	.	1f	1a	.	.	.	.
1C	1c	.	.	.	.	.	.
.	.	2e	2g	.	.	.	.
=28	=28	=28	=28	=28	=28	=28	=28
2r	2r	2d	1f	0r	0r	0r	0r
2F	2A	2c	.	.	.	.	.
2G	2B-	2r	1d	.	.	.	.
[2B-	[2d	2B-	.	.	.	.	.
=29	=29	=29	=29	=29	=29	=29	=29
2B-]	2d]	2d	1f	0r	0r	0r	0r
2A	2c	1f	.	.	.	.	.
1G	1B-	.	2g	.	.	.	.
.	.	2e	[2b-	.	.	.	.
=30	=30	=30	=30	=30	=30	=30	=30
1F	2r	2d	2b-]	0r	0r	0r	0r
.	2F	2.c	2a	.	.	.	.
2E	2G	.	2g	.	.	.	.
.	.	4B-	.	.	.	.	.
[2F	2c	4A	[2a	.	.	.	.
.	.	4G	.	.	.	.	.
=31	=31	=31	=31	=31	=31	=31	=31
4F]	2A	1F	4a]	0r	0r	0r	0r
4E	.	.	4g	.	.	.	.
4D	2A	.	4f	.	.	.	.
4C	.	.	4e	.	.	.	.
1BB-	2.B-	[1f	2d	.	.	.	.
.	.	.	2d	.	.	.	.
.	4B-	.	.	.	.	.	.
=32	=32	=32	=32	=32	=32	=32	=32
0C	2A	2f]	0c	1r	1r	1r	1r
.	4G	2e	.	.	.	.	.
.	4F	.	.	.	.	.	.
.	1G	1e	.	1C	1c	2r	2r
.	.	.	.	.	.	2e	2g
=33	=33	=33	=33	=33	=33	=33	=33
0r	0r	0r	0r	2C	2c	2e	2g
.	.	.	.	2BB	2d	2d	2g
.	.	.	.	1C	1c	1e	1g
=34	=34	=34	=34	=34	=34	=34	=34
2r	2r	2r	2r	1FF	1c	1f	1a
2F	2A	2c	2a	.	.	.	.
2F	2F	2c	2a	1r	1r	1r	1r
2E	2G	2c	2g	.	.	.	.
=35	=35	=35	=35	=35	=35	=35	=35
2.F	2.A	2.c	2.f	1r	1r	1r	1r
4F	4A	4c	4f	.	.	.	.
1BB-	1B-	1d	1f	2r	2r	2r	2r
.	.	.	.	[2BB-	[2B-	[2f	[2dd
=36	=36	=36	=36	=36	=36	=36	=36
0r	0r	0r	0r	2BB-]	2B-]	2f]	2dd]
.	.	.	.	2AA	2c	2f	2cc
.	.	.	.	1BB-	1d	1f	1b-
=37	=37	=37	=37	=37	=37	=37	=37
2r	2r	2r	2r	1.FF	2.c	2.f	2a
2F	2c	2A	2a	.	.	.	2cc
.	.	.	.	.	4B-	8e	.
.	.	.	.	.	.	8d	.
2F	2F	[1c	2a	.	2A	2c	[1cc
2E	2G	.	[2g	2C	2c	2e	.
=38	=38	=38	=38	=38	=38	=38	=38
1F	1A	2c]	4g]	2FF	2A	2.c	2cc]
.	.	.	4f	.	.	.	.
.	.	2A	1f	2FF	2F	.	2cc
.	.	.	.	.	.	4d	.
1C	1G	1c	.	1C	1G	2e	1cc
.	.	.	2e	.	.	2c	.
=39	=39	=39	=39	=39	=39	=39	=39
0F	0A	0c	0f	0FF	2F	2r	0cc
.	.	.	.	.	1A	1c	.
.	.	.	.	.	2F	2A	.
=40	=40	=40	=40	=40	=40	=40	=40
0r	0r	0r	0r	0r	2G	2B-	2r
.	.	.	.	.	2A	2c	1f
.	.	.	.	.	1B-	1d	.
.	.	.	.	.	.	.	2d
=41	=41	=41	=41	=41	=41	=41	=41
0r	0r	0r	0r	1r	2.A	1c	2e
.	.	.	.	.	.	.	2f
.	.	.	.	.	8G	.	.
.	.	.	.	.	8F	.	.
.	.	.	.	[1C	2E	2r	1g
.	.	.	.	.	[2G	[2e	.
=42	=42	=42	=42	=42	=42	=42	=42
0r	0r	0r	0r	2C]	2G]	2e]	1c
.	.	.	.	2AA	2A	2c	.
.	.	.	.	2BB-	2.G	2d	1r
.	.	.	.	2C	.	2e	.
.	.	.	.	.	4G	.	.
=43	=43	=43	=43	=43	=43	=43	=43
0r	0r	0r	0r	0D	2F	1.f	2r
.	.	.	.	.	2D	.	1a
.	.	.	.	.	4F	.	.
.	.	.	.	.	4G	.	.
.	.	.	.	.	4A	2d	2f
.	.	.	.	.	4F	.	.
=44	=44	=44	=44	=44	=44	=44	=44
0r	0r	0r	0r	1C	1c	1e	2g
.	.	.	.	.	.	.	2a
.	.	.	.	1BB-	1d	[1f	2b-
.	.	.	.	.	.	.	2b-
=45	=45	=45	=45	=45	=45	=45	=45
0r	0r	0r	0r	1F	2r	1f]	1a
.	.	.	.	.	1c	.	.
.	.	.	.	1G	.	1d	1g
.	.	.	.	.	2B-	.	.
=46	=46	=46	=46	=46	=46	=46	=46
0r	0r	0r	0r	1C	1c	1e-	2r
.	.	.	.	.	.	.	1g
.	.	.	.	1D	2B-	2d	.
.	.	.	.	.	2A	2d	2f
=47	=47	=47	=47	=47	=47	=47	=47
0r	0r	0r	0r	1GG	2G	2B-	1g
.	.	.	.	.	2B-	2.d	.
.	.	.	.	1AA	2.A	.	2f
.	.	.	.	.	.	4c	.
.	.	.	.	.	.	2c	2e
.	.	.	.	.	4G	.	.
=48	=48	=48	=48	=48	=48	=48	=48
1r	1r	1r	1r	2BB-	1F	2B-	2d
.	.	.	.	2D	.	2A	2f
2r	2r	2r	2r	1C	1G	1c	1e
2C	2c	2e	2g	.	.	.	.
=49	=49	=49	=49	=49	=49	=49	=49
2F	2c	2f	2a	0r	0r	0r	0r
2D	2F	2f	2b-	.	.	.	.
1C	1G	4e	2cc	.	.	.	.
.	.	4d	.	.	.	.	.
.	.	4e	4c	.	.	.	.
.	.	4f	4d	.	.	.	.
=50	=50	=50	=50	=50	=50	=50	=50
4C	2.c	2g	4e	0r	0r	0r	0r
4D	.	.	4f	.	.	.	.
4E	.	1g	4g	.	.	.	.
4F	4c	.	4a	.	.	.	.
4G	4B-	.	[1b-	.	.	.	.
4A	4c	.	.	.	.	.	.
[2B-	[2d	4f	.	.	.	.	.
.	.	4e	.	.	.	.	.
=51	=51	=51	=51	=51	=51	=51	=51
2B-]	2d]	2f	2b-]	1r	1r	1r	1r
2F	1c	2f	2a	.	.	.	.
1G	.	1d	1g	2r	2r	2r	2r
.	2B	.	.	2GG	2G	2d	2d
=52	=52	=52	=52	=52	=52	=52	=52
0r	0r	0r	0r	2C	2G	2c	2e
.	.	.	.	2AA	2A	2c	2f
.	.	.	.	1GG	1B-	2d	4g
.	.	.	.	.	.	.	4a
.	.	.	.	.	.	4G	4b-
.	.	.	.	.	.	4A	4cc
=53	=53	=53	=53	=53	=53	=53	=53
0r	0r	0r	0r	4GG	2G	4B-	2dd
.	.	.	.	4AA	.	4c	.
.	.	.	.	4BB-	2G	4d	1b-
.	.	.	.	4C	.	4e	.
.	.	.	.	4D	4F	[1f	.
.	.	.	.	4E	4G	.	.
.	.	.	.	[2F	4A	.	4a
.	.	.	.	.	4B-	.	4g
=54	=54	=54	=54	=54	=54	=54	=54
0r	0r	0r	0r	2F]	2.c	2f]	2a
.	.	.	.	2C	.	2e-	2g
.	.	.	.	.	4B-	.	.
.	.	.	.	1D	1A	1d	2g
.	.	.	.	.	.	.	2f#
=55	=55	=55	=55	=55	=55	=55	=55
1G	2r	2r	1b-	1GG	1G	1d	1g
.	2G	2B-	.	.	.	.	.
1F	1A	2c	1a	1r	1r	1r	1r
.	.	2d	.	.	.	.	.
=56	=56	=56	=56	=56	=56	=56	=56
1E-	2B-	1G	1g	0r	0r	0r	0r
.	1c	.	.	.	.	.	.
1D	.	2A	1f	.	.	.	.
.	[2B-	2B-	.	.	.	.	.
=57	=57	=57	=57	=57	=57	=57	=57
1C	4B-]	1c	1e-	1r	1r	1r	1r
.	8A	.	.	.	.	.	.
.	8G	.	.	.	.	.	.
.	2A	.	.	.	.	.	.
1BB-	1B-	1f	1d	1B-	2r	2r	1dd
.	.	.	.	.	2B-	2d	.
=58	=58	=58	=58	=58	=58	=58	=58
0r	0r	0r	0r	1A	1c	2e	1cc
.	.	.	.	.	.	2f	.
.	.	.	.	1G	2d	4B-	1b-
.	.	.	.	.	.	4c	.
.	.	.	.	.	2B-	4d	.
.	.	.	.	.	.	4e	.
=59	=59	=59	=59	=59	=59	=59	=59
0r	0r	0r	0r	1F	2c	2f	1a
.	.	.	.	.	1d	2F	.
.	.	.	.	1E-	.	1G	1g
.	.	.	.	.	2c	.	.
=60	=60	=60	=60	=60	=60	=60	=60
0r	0r	0r	0r	1D	1d	1A	1f#
.	.	.	.	1r	1r	1r	1r
=61	=61	=61	=61	=61	=61	=61	=61
0C	0c	0e	0g	0r	0r	0r	0r
=62	=62	=62	=62	=62	=62	=62	=62
1F	1c	1f	1a	0r	0r	0r	0r
1C	1c	1e	1g	.	.	.	.
=63	=63	=63	=63	=63	=63	=63	=63
1D	1A	1d	1f	0r	0r	0r	0r
1C	1c	1g	1e	.	.	.	.
=64	=64	=64	=64	=64	=64	=64	=64
1G	1B	1g	1d	1r	1r	1r	1r
1r	1r	1r	1r	1F	1c	1f	1a
=65	=65	=65	=65	=65	=65	=65	=65
0r	0r	0r	0r	1.BB-	1.d	1.f	1.b-
.	.	.	.	2FF	2c	2f	2a
=66	=66	=66	=66	=66	=66	=66	=66
0r	0r	0r	0r	1C	1c	1e	1g
.	.	.	.	1D	2A	1d	1f
.	.	.	.	.	2B	.	.
=67	=67	=67	=67	=67	=67	=67	=67
2r	2r	2r	2r	1C	1c	1G	1e
1C	1c	1e	1g	.	.	.	.
.	.	.	.	1r	1r	1r	1r
2C	2c	2e	2g	.	.	.	.
=68	=68	=68	=68	=68	=68	=68	=68
1F	1c	1f	1a	0r	0r	0r	0r
1C	1c	1e	2g	.	.	.	.
.	.	.	[2cc	.	.	.	.
=69	=69	=69	=69	=69	=69	=69	=69
1G	1.d	1g	2cc]	2r	2r	2r	2r
.	.	.	4b	1GG	1G	2d	1g
.	.	.	4a	.	.	.	.
1G	.	1g	2b	.	.	2d	.
.	2d	.	2b	2GG	2G	[2g	2g
=70	=70	=70	=70	=70	=70	=70	=70
1C	1c	1g	1cc	1C	1.G	2g]	1e
.	.	.	.	.	.	2c	.
1r	1r	1r	1r	1GG	.	4B-	2d
.	.	.	.	.	.	4c	.
.	.	.	.	.	2B-	4d	[2g
.	.	.	.	.	.	4e	.
=71	=71	=71	=71	=71	=71	=71	=71
0r	0r	0r	0r	1D	1A	1.d	2g]
.	.	.	.	.	.	.	4f#
.	.	.	.	.	.	.	4e
.	.	.	.	1D	1A	.	2f#
.	.	.	.	.	.	2d	2f#
=72	=72	=72	=72	=72	=72	=72	=72
1r	1r	1r	1r	1GG	1G	1d	1g
[1BB-	[1B-	[1f	[1dd	1r	1r	2r	1r
.	.	.	.	.	.	[2B-	.
=73	=73	=73	=73	=73	=73	=73	=73
1BB-]	1B-]	1f]	1dd]	0BB-	0F	4B-]	0dd
.	.	.	.	.	.	4c	.
.	.	.	.	.	.	2.d	.
2.D	2.F	[1f	1b-	.	.	.	.
.	.	.	.	.	.	4e	.
.	.	.	.	.	.	[2f	.
4E	4G	.	.	.	.	.	.
=74	=74	=74	=74	=74	=74	=74	=74
0F	2.A	0f]	0a	0FF	0F	2f]	0cc
.	.	.	.	.	.	4F	.
.	4B-	.	.	.	.	4G	.
.	1c	.	.	.	.	4A	.
.	.	.	.	.	.	4B-	.
.	.	.	.	.	.	[2c	.
=75	=75	=75	=75	=75	=75	=75	=75
0C	0c	0e	0g	2.C	0G	4c]	0cc
.	.	.	.	.	.	4d	.
.	.	.	.	.	.	4e	.
.	.	.	.	4D	.	4f	.
.	.	.	.	1E	.	2g	.
.	.	.	.	.	.	[2c	.
=76	=76	=76	=76	=76	=76	=76	=76
0FF	2r	0c	4f	0F	0A	4c]	0a
.	.	.	4g	.	.	4B-	.
.	2.c	.	4a	.	.	2.A	.
.	.	.	4b-	.	.	.	.
.	.	.	[1cc	.	.	.	.
.	4B-	.	.	.	.	4G	.
.	[2A	.	.	.	.	2F	.
=77	=77	=77	=77	=77	=77	=77	=77
0F	2A]	1c	0cc]	0FF	0F	1A	0a
.	4F	.	.	.	.	.	.
.	4G	.	.	.	.	.	.
.	4A	1f	.	.	.	1c	.
.	4B-	.	.	.	.	.	.
.	[2c	.	.	.	.	.	.
=78	=78	=78	=78	=78	=78	=78	=78
[0C	2c]	[0e	[0cc	[0C	1G	[0c	[0g
.	4B-	.	.	.	.	.	.
.	4A	.	.	.	.	.	.
.	1G	.	.	.	1E	.	.
=79	=79	=79	=79	=79	=79	=79	=79
0C]	0G	0e]	0cc]	0C]	0E	0c]	0g]
*	*	*	*	*-	*-	*-	*-
!! Crucifixus
*Ibass	*Itenor	*Icalto	*Icalto
!Bassus	!Tenor	!Altus 2	!Altus 1
*clefF4	*clefGv2	*clefG2	*clefG2
*k[b-]	*k[b-]	*k[b-]	*k[b-]
*F:ion	*F:ion	*F:ion	*F:ion
*M4/2	*M4/2	*M4/2	*M4/2
=80	=80	=80	=80
1r	0c	0r	0r
[1F	.	.	.
=81	=81	=81	=81
1F]	1A	0r	0r
1D	1B-	.	.
=82	=82	=82	=82
1E	1c	0r	0r
1F	[1d	.	.
=83	=83	=83	=83
1.G	2d]	0r	0r
.	2c	.	.
.	2B-	.	.
2F	2A	.	.
=84	=84	=84	=84
2E	2G	0r	0r
2D	4F	.	.
.	4G	.	.
2.C	4A	.	.
.	4B-	.	.
.	[2c	.	.
4D	.	.	.
=85	=85	=85	=85
4E	2c]	0r	0r
4F	.	.	.
2.G	4B-	.	.
.	4A	.	.
.	4B-	.	.
4F	4A	.	.
[2F	4A	.	.
.	8G	.	.
.	8F	.	.
=86	=86	=86	=86
2F]	1G	0r	1r
2E	.	.	.
1F	2F	.	2r
.	2A	.	2c
=87	=87	=87	=87
0r	2B-	2r	2d
.	2A	2c	2e
.	2D	2d	2f
.	2A	2e	2c
=88	=88	=88	=88
1r	1F	2f	4d
.	.	.	4c
.	.	2c	2.f
2r	1D	4d	.
.	.	4e	4e
2F	.	4f	[2d
.	.	4d	.
=89	=89	=89	=89
2G	0r	4e	2d]
.	.	4f	.
2A	.	2.e	2c
2B-	.	.	2.d
.	.	4d	.
2F	.	[2d	.
.	.	.	4f
=90	=90	=90	=90
2G	0r	2d]	1e
2A	.	2c#	.
1D	.	1d	1d
=91	=91	=91	=91
0BB-	0B-	0f	0d
=92	=92	=92	=92
1C	0G	1e	1c
2.GG	.	1d	[1B-
4AA	.	.	.
=93	=93	=93	=93
4BB-	1.F	1d	2B-]
4C	.	.	.
4D	.	.	4A
4E	.	.	4G
2F	.	[1c	2A
[2G	2E	.	2G
=94	=94	=94	=94
2G]	2F	2c]	2A
1F	2D	2B-	2F
.	1C	1c	1G
2E	.	.	.
!! Et resurrexit
*Ibass	*Itenor	*Icalto	*Icalto
!Bassus	!Tenor	!Altus 2	!Altus 1
*clefF4	*clefGv2	*clefG2	*clefG2
*k[b-]	*k[b-]	*k[b-]	*k[b-]
*F:ion	*F:ion	*F:ion	*F:ion
*M3/2	*M3/2	*M3/2	*M3/2
=95	=95	=95	=95
1F	2c	1r	2A
.	2A	.	2F
2r	2d	2r	2B-
=96	=96	=96	=96
1r	4c	2e	2.A
.	4B-	.	.
.	4A	2c	.
.	4G	.	8B-
.	.	.	8c
2r	4F	2f	2d
.	4D	.	.
=97	=97	=97	=97
1r	1A	1e	2.c
.	.	.	8d
.	.	.	8e
2r	2D	2d	2f
=98	=98	=98	=98
1r	2.A	2.c	2.e
.	4F	4A	4f
2r	2G	2B	2d
=99	=99	=99	=99
1r	2A	2.c	2c
.	1G	.	1d
.	.	8B	.
.	.	8A	.
2r	.	2B	.
=100	=100	=100	=100
2r	1C	1c	1e
2r	.	.	.
2C	2G	2c	2e
=101	=101	=101	=101
1BB-	2B-	1d	2f
.	2F	.	1B-
2GG	2G	2B-	.
=102	=102	=102	=102
2AA	2.F	2A	2c
2BB-	.	1G	2d
.	4D	.	.
2C	2E	.	2c
!! Et ascendit
*Ibass	*Itenor	*Icalto	*Icalto
!Bassus	!Tenor	!Altus 2	!Altus 1
*clefF4	*clefGv2	*clefG2	*clefG2
*k[b-]	*k[b-]	*k[b-]	*k[b-]
*F:ion	*F:ion	*F:ion	*F:ion
*M4/2	*M4/2	*M4/2	*M4/2
=103	=103	=103	=103
1FF	2.F	2A	1c
.	.	1c	.
.	4E	.	.
[1F	1D	.	2r
.	.	2B-	2F
=104	=104	=104	=104
2F]	1C	1c	1G
2E	.	.	.
2F	1r	2d	2A
2G	.	2e	2B-
=105	=105	=105	=105
2A	0r	2.f	2c
2.B-	.	.	2.d
.	.	4e	.
.	.	4d	.
4A	.	4c	4e
4A	.	4c	[2f
8G	.	8B-	.
8F	.	8A	.
=106	=106	=106	=106
1G	2r	1B-	2f]
.	1B-	.	2e
1F	.	1c	[1f
.	2A	.	.
=107	=107	=107	=107
1r	2B-	2d	2f]
.	2c	2e	2e
2r	2d	2f	2d
2C	[2e-	[2g	[2c
=108	=108	=108	=108
1G	4e-]	2g]	4c]
.	4d	.	4B-
.	4d	2d	1B-
.	8c	.	.
.	8B-	.	.
1F	1c	1f	.
.	.	.	2A
=109	=109	=109	=109
1r	1B-	1f	1d
1BB-	2r	2r	2r
.	2B-	2f	2d
=110	=110	=110	=110
2BB-	2B-	2f	2d
2BB-	2B-	2f	2d
[1BB-	[1B-	[1f	[1d
=111	=111	=111	=111
2BB-]	2B-]	2f]	2d]
2F	2A	2f	2c
1F	1A	1f	2c
.	.	.	[2d
=112	=112	=112	=112
0G	0B	0d	1d]
.	.	.	1G
=113	=113	=113	=113
1C	1c	0e	2r
.	.	.	2G
2r	2r	.	2.c
2C	2G	.	.
.	.	.	4c
=114	=114	=114	=114
2F	2.A	0r	2c
2F	.	.	4F
.	4B-	.	4G
2F	2c	.	4A
.	.	.	4B-
2FF	2A	.	4c
.	.	.	4d
=115	=115	=115	=115
2C	2G	2r	2e
2D	2F	2A	1f
1C	1G	2.c	.
.	.	.	2e
.	.	4c	.
=116	=116	=116	=116
0r	2F	2c	1.f
.	4D	4F	.
.	4E	4G	.
.	4F	4A	.
.	4G	4B-	.
.	[2A	4c	4e
.	.	4d	4d
=117	=117	=117	=117
1r	2A]	2e	1c
.	2F	1f	.
1C	2G	.	2r
.	2G	2e	2c
=118	=118	=118	=118
2.F	2.A	2f	2.c
.	.	2c	.
4F	4A	.	4c
2F	2A	2.f	2c
4BB-	[2B-	.	[2d
4C	.	4f	.
=119	=119	=119	=119
4D	2B-]	1f	2d]
4E	.	.	.
1F	4A	.	4c
.	4G	.	4B-
.	2A	2.f	2c
2D	2B-	.	2F
.	.	4d	.
=120	=120	=120	=120
1C	1c	1e-	1G
[1BB-	1F	1d	2B-
.	.	.	4B-
.	.	.	4c
=121	=121	=121	=121
1BB-]	2r	4B-	4d
.	.	4c	4e
.	4B-	4d	2f
.	4c	4e	.
2r	4d	1f	[1B-
.	4e-	.	.
4BB-	2d	.	.
4C	.	.	.
=122	=122	=122	=122
4D	2d	1f	2B-]
4E	.	.	.
2F	2c	.	2A
2BB-	1B-	1f	2.d
2BB-	.	.	.
.	.	.	4c
=123	=123	=123	=123
1.BB-	1.F	1.d	1.B-
2FF	2F	2c	2A
=124	=124	=124	=124
0FF	2.F	1c	1A
.	4G	.	.
.	1A	2r	1c
.	.	2c	.
=125	=125	=125	=125
1r	1r	2d	2B-
.	.	1f	2.A
1C	2r	.	.
.	.	.	8G
.	.	.	8F
.	2c	2e	2G
=126	=126	=126	=126
2D	2B-	1d	1F
1F	2.A	.	.
.	.	1c	2r
.	8G	.	.
.	8F	.	.
2E	2G	.	2c
=127	=127	=127	=127
1D	1F	2B-	2d
.	.	1A	1f
2.C	1r	.	.
.	.	[2G	2e
4BB-	.	.	.
=128	=128	=128	=128
2AA	2r	4G]	2c
.	.	4F	.
2BB-	2F	1F	1d
1GG	2G	.	.
.	[2B-	2E	4c
.	.	.	4B-
=129	=129	=129	=129
1FF	2B-]	1F	2d
.	2A	.	2c
1r	1G	2r	1B-
.	.	2G	.
=130	=130	=130	=130
2r	2F	2A	1c
2C	2E	1c	.
2D	1D	.	1r
[2F	.	2B-	.
=131	=131	=131	=131
2F]	1C	2A	2r
2E	.	2G	2c
1D	2r	2F	2d
.	2F	[2A	[2f
=132	=132	=132	=132
1C	1G	4A]	2f]
.	.	4G	.
.	.	1G	2e
1D	2B-	.	1d
.	2A	2F	.
=133	=133	=133	=133
0BB-	2G	1B-	2.d
.	2F	.	.
.	.	.	4c
.	4D	2d	2B-
.	4E	.	.
.	4F	2d	2A
.	4D	.	.
=134	=134	=134	=134
0C	2E	1c	2G
.	1F	.	2F
.	.	1c	1G
.	2E	.	.
=135	=135	=135	=135
0FF	0F	0c	0A
!! Et in Spiritum
*Ibass	*Itenor	*Icant	*Icant
!Bassus	!Tenor	!Cantus 2	!Cantus 1
*clefF4	*clefGv2	*clefG2	*clefG2
*k[b-]	*k[b-]	*k[b-]	*k[b-]
*F:ion	*F:ion	*F:ion	*F:ion
*M4/2	*M4/2	*M4/2	*M4/2
=136	=136	=136	=136
0r	0r	0f	0r
=137	=137	=137	=137
0r	0r	1g	1r
.	.	2.a	[1f
.	.	4a	.
=138	=138	=138	=138
0r	0r	2a	1f]
.	.	1f	.
.	.	.	1g
.	.	2e	.
=139	=139	=139	=139
0r	0F	1.f	2.a
.	.	.	4a
.	.	.	2a
.	.	2e	[2cc
=140	=140	=140	=140
1r	1G	1d	2cc]
.	.	.	2b
[1F	2.A	2r	[1cc
.	.	[2f	.
.	4A	.	.
=141	=141	=141	=141
1F]	2A	2f]	2cc]
.	1c	2f	2a
1G	.	2.d	2.g
.	2B	.	.
.	.	4d	4f
=142	=142	=142	=142
2.A	1.c	2c	1e
.	.	1e	.
4A	.	.	.
2A	.	.	1r
[2F	2A	2f	.
=143	=143	=143	=143
2F]	1G	2g	2r
2E	.	2g	1c
2F	2r	2a	.
2D	2F	[2a	[2f
=144	=144	=144	=144
1C	2c	2a]	2f]
.	2c	4g	4e
.	.	4f	4d
1r	2c	2g	2e
.	4F	[2f	[2a
.	4G	.	.
=145	=145	=145	=145
0r	4A	2f]	2a]
.	4B-	.	.
.	2.c	4e	4g
.	.	4d	4f
.	.	2e	2g
.	4B-	.	.
.	2A	2c	2a
=146	=146	=146	=146
1r	1G	1d	4b
.	.	.	2cc
.	.	.	4b
1C	2r	1e	2cc
.	2c	.	2g
=147	=147	=147	=147
2F	2c	2r	2a
2F	2c	2a	1f
2F	2A	2cc	.
4BB-	[2d	2b-	2f
4C	.	.	.
=148	=148	=148	=148
4D	2d]	4a	2.f
4E	.	4g	.
2.F	4c	4f	.
.	4B-	4e	4g
.	[1A	4d	2.a
4E	.	4c	.
2D	.	2f	.
.	.	.	4b-
=149	=149	=149	=149
0C	2A]	2e	0cc
.	4G	2.f	.
.	4F	.	.
.	1G	.	.
.	.	8e	.
.	.	8d	.
.	.	2e	.
=150	=150	=150	=150
0F	2F	[0f	[0a
.	1c	.	.
.	2A	.	.
=151	=151	=151	=151
2r	1d	0f]	0a]
1F	.	.	.
.	2c	.	.
2D	[2d	.	.
=152	=152	=152	=152
1G	2d]	1r	0r
.	4c	.	.
.	4B-	.	.
2F	2.A	2r	.
2F	.	[2cc	.
.	4B-	.	.
=153	=153	=153	=153
2E	2c	2cc]	0r
2F	2c	2a	.
4BB-	1B-	1dd	.
4C	.	.	.
4D	.	.	.
4E	.	.	.
=154	=154	=154	=154
2.F	2.A	1cc	2r
.	.	.	1cc
8E	8G	.	.
8D	8F	.	.
2C	2E	1r	.
2D	[2A	.	2a
=155	=155	=155	=155
1BB-	2A]	1r	1dd
.	2G	.	.
1AA	1A	2r	2cc
.	.	2a	2cc
=156	=156	=156	=156
0r	0r	2g	2b-
.	.	2a	2cc
.	.	2cc	4f
.	.	.	4g
.	.	[2f	4a
.	.	.	4b-
=157	=157	=157	=157
0r	2r	2f]	2.cc
.	1c	4e	.
.	.	4d	8b-
.	.	.	8a
.	.	1e	2g
.	2A	.	[2a
=158	=158	=158	=158
0r	1d	1f	4a]
.	.	.	4g
.	.	.	2.f
.	2c	[1g	.
.	.	.	4e
.	2c	.	4e
.	.	.	8d
.	.	.	8c
=159	=159	=159	=159
1r	2B	1g]	2d
.	2c	.	2e
2r	4F	[1a	2f
.	4G	.	.
[2F	4A	.	[2f
.	4B-	.	.
=160	=160	=160	=160
2F]	2c	2a]	2f]
2D	1d	2a	2f
1G	.	1b-	2d
.	4c	.	2e
.	4B-	.	.
=161	=161	=161	=161
2F	0c	2a	1f
2F	.	2a	.
2E	.	2g	2g
2F	.	2a	2f
=162	=162	=162	=162
4BB-	2d	2b-	1f
4C	.	.	.
4D	2d	4a	.
4E	.	4g	.
2F	2c	2a	2r
[2BB-	[2B-	[2dd	[2f
=163	=163	=163	=163
2BB-]	2B-]	2dd]	2f]
2BB-	2B-	2dd	2f
2BB-	2B-	2dd	2f
2BB-	2B-	2dd	2f
=164	=164	=164	=164
0BB-	0d	0b-	0f
=165	=165	=165	=165
1F	2c	2a	2f
.	2F	2cc	2a
1r	2F	2cc	2a
.	2F	2cc	2a
=166	=166	=166	=166
0r	1F	1a	2cc
.	.	.	2.f
.	1c	2g	.
.	.	.	8e
.	.	.	8d
.	.	[2a	2e
=167	=167	=167	=167
0r	2.d	4a]	2.f
.	.	4g	.
.	.	4f	.
.	4c	4e	8g
.	.	.	8a
.	4B-	2d	1b-
.	4A	.	.
.	2G	[2g	.
=168	=168	=168	=168
1r	1d	4g]	2a
.	.	4f	.
.	.	1f	4g
.	.	.	4f
2r	1c	.	1g
2C	.	2e	.
=169	=169	=169	=169
2D	2B-	1f	1r
1F	1A	.	.
.	.	1r	1cc
2E	2G	.	.
=170	=170	=170	=170
4D	4F	0r	2b-
4E	4G	.	.
4F	4A	.	1a
4G	4B-	.	.
2A	1c	.	.
2E	.	.	2g
=171	=171	=171	=171
4F	2A	0r	1f
4G	.	.	.
4A	2F	.	.
4F	.	.	.
2G	4B-	.	1r
.	4A	.	.
[2F	4A	.	.
.	8G	.	.
.	8F	.	.
=172	=172	=172	=172
2F]	1G	1r	2r
2E	.	.	2.cc
1F	2A	2r	.
.	.	.	4b-
.	2F	2cc	2a
=173	=173	=173	=173
0r	2G	2b-	2g
.	2A	1a	1f
.	1c	.	.
.	.	2g	2e
=174	=174	=174	=174
0r	1F	4f	2a
.	.	4g	.
.	.	4a	4f
.	.	4b-	4g
.	4F	1cc	4a
.	4G	.	4b-
.	4A	.	[2cc
.	4B-	.	.
=175	=175	=175	=175
0r	2c	2a	4cc]
.	.	.	4b-
.	2d	2f	2a
.	1B-	2b-	2g
.	.	2a	[2f
=176	=176	=176	=176
2r	2c	1g	2f]
2C	2c	.	2e
2D	2B-	1r	1f
[2F	[2A	.	.
=177	=177	=177	=177
2F]	2A]	1c	2r
2E	2G	.	2cc
1D	4F	2d	2b-
.	4G	.	.
.	4A	[2f	[2a
.	4B-	.	.
=178	=178	=178	=178
1C	1c	2f]	2a]
.	.	2e	2g
2.D	[1A	4d	4f
.	.	4e	4g
.	.	4f	4a
8C	.	4g	4b-
8BB-	.	.	.
=179	=179	=179	=179
4AA	2A]	2a	1cc
4BB-	.	.	.
2C	2G	2e	.
1D	2.F	4f	2a
.	.	4g	.
.	.	4a	2f
.	4D	4f	.
=180	=180	=180	=180
1BB-	1d	2g	1b-
.	.	1f	.
1C	1c	.	4a
.	.	.	8g
.	.	.	8f
.	.	2e	2g
=181	=181	=181	=181
0FF	[0c	2.a	2.f
.	.	4g	4g
.	.	1f	1a
=182	=182	=182	=182
0C	0c]	0e	0g
*-	*-	*-	*-
!! Et unam sanctam
**kern	**kern	**kern	**kern	**kern	**kern	**kern	**kern
*Ibass	*Itenor	*Icalto	*Icant	*Ibass	*Itenor	*Icalto	*Icant
!Bassus	!Tenor	!Altus	!Cantus	!Bassus	!Tenor	!Altus	!Cantus
*clefF4	*clefGv2	*clefG2	*clefG2	*clefF4	*clefGv2	*clefG2	*clefG2
*k[b-]	*k[b-]	*k[b-]	*k[b-]	*k[b-]	*k[b-]	*k[b-]	*k[b-]
*F:ion	*F:ion	*F:ion	*F:ion	*F:ion	*F:ion	*F:ion	*F:ion
*M4/2	*M4/2	*M4/2	*M4/2	*M4/2	*M4/2	*M4/2	*M4/2
=183	=183	=183	=183	=183	=183	=183	=183
0r	0r	0r	0r	1r	1G	1r	1r
.	.	.	.	1C	2G	1e	2r
.	.	.	.	.	2G	.	2g
=184	=184	=184	=184	=184	=184	=184	=184
0r	0r	0r	0r	2C	1c	2e	2g
.	.	.	.	2C	.	2e	2g
.	.	.	.	1F	2c	1f	1a
.	.	.	.	.	2A	.	.
=185	=185	=185	=185	=185	=185	=185	=185
0r	0r	0r	0r	2F	1.d	2f	2a
.	.	.	.	2D	.	2f	2a
.	.	.	.	2.G	.	4B-	2.b-
.	.	.	.	.	.	4c	.
.	.	.	.	.	2B-	4d	.
.	.	.	.	4G	.	4e	4b-
=186	=186	=186	=186	=186	=186	=186	=186
1r	1r	1r	1r	[0F	2.c	2f	4a
.	.	.	.	.	.	.	4g
.	.	.	.	.	.	2f	4a
.	.	.	.	.	4B-	.	4b-
1FF	2r	1f	1a	.	[1A	[1c	4cc
.	.	.	.	.	.	.	4b-
.	2c	.	.	.	.	.	4a
.	.	.	.	.	.	.	4g
=187	=187	=187	=187	=187	=187	=187	=187
2FF	2A	2f	2cc	1F]	1A]	1c]	1f
2FF	2A	2f	2cc	.	.	.	.
2.BB-	2.d	2.f	2.b-	1r	1r	1r	1r
4BB-	4d	4f	4b-	.	.	.	.
=188	=188	=188	=188	=188	=188	=188	=188
2BB-	2d	2f	2b-	0r	0r	0r	0r
2GG	2d	2g	2b-	.	.	.	.
2D	2d	2f	2a	.	.	.	.
2D	2d	2f	2b-	.	.	.	.
=189	=189	=189	=189	=189	=189	=189	=189
[0C	[0G	[0e	[0cc	0r	0r	1r	2r
.	.	.	.	.	.	.	2c
.	.	.	.	.	.	2r	2.g
.	.	.	.	.	.	2c	.
.	.	.	.	.	.	.	4g
=190	=190	=190	=190	=190	=190	=190	=190
1C]	1G]	1e]	1cc]	0r	2r	2.g	2g
.	.	.	.	.	2C	.	4c
.	.	.	.	.	.	4g	4d
1r	1r	1r	1r	.	2.c	2g	4e
.	.	.	.	.	.	.	4f
.	.	.	.	.	.	4c	[2g
.	.	.	.	.	4c	4d	.
=191	=191	=191	=191	=191	=191	=191	=191
0r	0r	0r	0r	0r	2c	4e	2g]
.	.	.	.	.	.	8d	.
.	.	.	.	.	.	8e	.
.	.	.	.	.	4F	2.f	2.a
.	.	.	.	.	4G	.	.
.	.	.	.	.	4A	.	.
.	.	.	.	.	4B-	4d	4g
.	.	.	.	.	2c	2e-	[2g
=192	=192	=192	=192	=192	=192	=192	=192
0r	0r	0r	0r	1r	2B-	2d	4g]
.	.	.	.	.	.	.	4f
.	.	.	.	.	2A	2c	1f
.	.	.	.	2r	1G	1c	.
.	.	.	.	2C	.	.	2e
=193	=193	=193	=193	=193	=193	=193	=193
0r	0r	0r	0r	2.F	2F	2c	0f
.	.	.	.	.	2c	2A	.
.	.	.	.	4F	.	.	.
.	.	.	.	2F	2A	2c	.
.	.	.	.	4BB-	[2B-	2d	.
.	.	.	.	4C	.	.	.
=194	=194	=194	=194	=194	=194	=194	=194
0r	0r	0r	0r	4D	2B-]	2.f	2r
.	.	.	.	4E	.	.	.
.	.	.	.	2F	4A	.	2c
.	.	.	.	.	4G	4e	.
.	.	.	.	2F	4A	2d	2d
.	.	.	.	.	4G	.	.
.	.	.	.	2E	2G	[2c	2e
=195	=195	=195	=195	=195	=195	=195	=195
1r	1r	1r	1r	1D	1F	2c]	1f
.	.	.	.	.	.	2B	.
2r	2r	2r	2r	1C	1G	1c	1e
[2C	[2c	[2e	[2g	.	.	.	.
=196	=196	=196	=196	=196	=196	=196	=196
2C]	2c]	2e]	2g]	0r	0r	0r	0r
2BB	2d	2d	2g	.	.	.	.
2C	2c	2e	2g	.	.	.	.
2C	2c	2e	2g	.	.	.	.
=197	=197	=197	=197	=197	=197	=197	=197
1GG	2B-	0d	1b-	2r	1r	2r	2r
.	2G	.	.	1G	.	1d	2g
1D	2r	.	1a	.	2.d	.	1a
.	[2d	.	.	2F	.	2A	.
.	.	.	.	.	4d	.	.
=198	=198	=198	=198	=198	=198	=198	=198
2GG	2d]	1d	0g	2G	2d	2d	2b
2GG	1G	.	.	2G	2d	2g	2b
1C	.	1e	.	1C	2.c	1g	1cc
.	[2c	.	.	.	.	.	.
.	.	.	.	.	4B-	.	.
=199	=199	=199	=199	=199	=199	=199	=199
2FF	4c]	1f	2.a	1F	2A	2f	1cc
.	4B-	.	.	.	.	.	.
1F	2A	.	.	.	2F	2.c	.
.	.	.	4b-	.	.	.	.
.	1G	2g	1cc	1C	2r	.	2r
.	.	.	.	.	.	4d	.
2E	.	2c	.	.	2G	2e	2cc
=200	=200	=200	=200	=200	=200	=200	=200
1F	1F	2c	0cc	1FF	2A	2c	1a
.	.	2A	.	.	2.c	1f	.
1C	1G	1c	.	1C	.	.	1g
.	.	.	.	.	8B-	.	.
.	.	.	.	.	8A	.	.
.	.	.	.	.	2G	2e	.
=201	=201	=201	=201	=201	=201	=201	=201
2r	2F	2c	2a	1FF	1A	1f	1cc
1F	1c	1f	1a	.	.	.	.
.	.	.	.	1r	1r	1r	1r
2D	2B-	2f	2dd	.	.	.	.
=202	=202	=202	=202	=202	=202	=202	=202
1F	1A	1.f	1cc	2r	2r	2r	2r
.	.	.	.	1F	2F	1f	2a
1BB-	1B-	.	1b-	.	2D	.	1dd
.	.	[2F	.	2D	4F	2f	.
.	.	.	.	.	4G	.	.
=203	=203	=203	=203	=203	=203	=203	=203
1FF	1c	4F]	1a	1F	4A	1f	1cc
.	.	4G	.	.	4B-	.	.
.	.	2A	.	.	4c	.	.
.	.	.	.	.	4A	.	.
2r	2r	2r	2r	[1BB-	1d	[1f	[1b-
[2BB-	[2d	[2F	[2b-	.	.	.	.
=204	=204	=204	=204	=204	=204	=204	=204
2BB-]	2d]	2F]	2b-]	1BB-]	1B-	1f]	1b-]
2BB-	2d	2f	2b-	.	.	.	.
2BB-	2d	2f	2b-	1r	1r	1r	1r
2BB-	2d	2f	2b-	.	.	.	.
=205	=205	=205	=205	=205	=205	=205	=205
1F	2.c	1f	1a	2r	2r	2r	2r
.	.	.	.	1FF	1A	1f	1cc
.	4B-	.	.	.	.	.	.
1F	2A	1c	1a	.	.	.	.
.	2F	.	.	2FF	2A	2f	2cc
=206	=206	=206	=206	=206	=206	=206	=206
1r	1r	1r	1r	2FF	2c	2f	2a
.	.	.	.	2FF	2c	2f	2a
2r	2r	2r	2r	1BB-	1d	4f	1b-
.	.	.	.	.	.	4e	.
[2BB-	[2B-	[2f	[2dd	.	.	4d	.
.	.	.	.	.	.	4c	.
=207	=207	=207	=207	=207	=207	=207	=207
2BB-]	2B-]	2f]	2dd]	1BB-	1d	2B-	1b-
2BB-	2B-	2f	2dd	.	.	2F	.
2BB-	2d	2f	2b-	1r	1r	1r	1r
2BB-	2d	2f	2b-	.	.	.	.
=208	=208	=208	=208	=208	=208	=208	=208
1F	2c	2f	4a	0r	0r	0r	0r
.	.	.	4b-	.	.	.	.
.	2A	2f	4cc	.	.	.	.
.	.	.	4b-	.	.	.	.
1F	2c	4f	4a	.	.	.	.
.	.	4e	4g	.	.	.	.
.	[2d	4d	4f	.	.	.	.
.	.	4c	4e	.	.	.	.
=209	=209	=209	=209	=209	=209	=209	=209
2.G	4d]	1B-	2d	0r	0r	0r	0r
.	4c	.	.	.	.	.	.
.	4B-	.	2d	.	.	.	.
4F	4A	.	.	.	.	.	.
4E-	2G	1e-	[1g	.	.	.	.
4D	.	.	.	.	.	.	.
2C	[2c	.	.	.	.	.	.
=210	=210	=210	=210	=210	=210	=210	=210
1G	4c]	2.d	2g]	0r	0r	0r	0r
.	4B-	.	.	.	.	.	.
.	1B-	.	2d	.	.	.	.
.	.	8c	.	.	.	.	.
.	.	8B-	.	.	.	.	.
1F	.	1c	1f	.	.	.	.
.	2A	.	.	.	.	.	.
=211	=211	=211	=211	=211	=211	=211	=211
1BB-	1B-	1d	1f	2r	2r	2r	2r
.	.	.	.	2BB-	2d	2f	2b-
1r	1r	1r	1r	1BB-	1d	1f	1b-
=212	=212	=212	=212	=212	=212	=212	=212
0r	0r	0r	0r	4FF	0c	1f	1a
.	.	.	.	4GG	.	.	.
.	.	.	.	4AA	.	.	.
.	.	.	.	4BB-	.	.	.
.	.	.	.	1C	.	2e	2g
.	.	.	.	.	.	[2g	[2cc
=213	=213	=213	=213	=213	=213	=213	=213
0r	0r	0r	0r	1G	1d	2g]	2cc]
.	.	.	.	.	.	2g	4b-
.	.	.	.	.	.	.	4a
.	.	.	.	2G	2d	2.g	2b-
.	.	.	.	2G	2d	.	2b-
.	.	.	.	.	.	4g	.
=214	=214	=214	=214	=214	=214	=214	=214
0r	0r	0r	0r	2.G	1.B-	2d	2.g
.	.	.	.	.	.	4B-	.
.	.	.	.	4G	.	4c	4g
.	.	.	.	[1D	.	4d	2f
.	.	.	.	.	.	4e	.
.	.	.	.	.	2A	[2f	4d
.	.	.	.	.	.	.	4e
=215	=215	=215	=215	=215	=215	=215	=215
0r	0r	0r	0r	1D]	2A	4f]	4f
.	.	.	.	.	.	4e	4g
.	.	.	.	.	4F	2d	2.a
.	.	.	.	.	4G	.	.
.	.	.	.	1F	4A	2c	.
.	.	.	.	.	4B-	.	4g
.	.	.	.	.	[2c	2A	2f
=216	=216	=216	=216	=216	=216	=216	=216
0r	0r	0r	0r	0C	4c]	2G	2e
.	.	.	.	.	4B-	.	.
.	.	.	.	.	2A	2.c	1f
.	.	.	.	.	1G	.	.
.	.	.	.	.	.	4B-	.
.	.	.	.	.	.	2G	2e
=217	=217	=217	=217	=217	=217	=217	=217
2r	2r	2r	2r	0FF	0F	0A	0f
2F	2c	2f	2a	.	.	.	.
1F	1c	1f	1a	.	.	.	.
=218	=218	=218	=218	=218	=218	=218	=218
0BB-	0d	0f	0b-	2r	2r	2r	2r
.	.	.	.	2BB-	2F	2B-	2dd
.	.	.	.	1BB-	1B-	1f	1dd
=219	=219	=219	=219	=219	=219	=219	=219
2r	2r	2r	2r	0FF	0A	0f	1cc
2F	2A	2c	2.cc	.	.	.	.
1F	1c	4A	.	.	.	.	2r
.	.	4B-	4b-	.	.	.	.
.	.	4c	2a	.	.	.	2cc
.	.	4d	.	.	.	.	.
=220	=220	=220	=220	=220	=220	=220	=220
0C	2c	4e	1g	2r	2r	2r	2cc
.	.	4f	.	.	.	.	.
.	2C	2g	.	2C	2c	2e	2cc
.	2.E	[1c	1g	2C	2G	2e	2.cc
.	.	.	.	2C	2G	2e	.
.	4F	.	.	.	.	.	4cc
=221	=221	=221	=221	=221	=221	=221	=221
2r	2G	2c]	2r	2.C	2.c	2.e	1g
2G	2C	2e	2g	.	.	.	.
.	.	.	.	4C	4c	4e	.
2G	4G	2d	2b-	[1GG	4B-	2g	2r
.	4A	.	.	.	4c	.	.
2G	4B-	[2G	2b-	.	4d	4G	2dd
.	4c	.	.	.	4c	4A	.
=222	=222	=222	=222	=222	=222	=222	=222
2.G	1.d	2G]	2.b-	1GG]	4B-	4B-	2dd
.	.	.	.	.	4A	4c	.
.	.	2.B-	.	.	2G	2.d	2dd
4G	.	.	4b-	.	.	.	.
1D	.	.	[1f	1BB-	2r	.	2.b-
.	.	4B-	.	.	.	4e	.
.	2d	[2F	.	.	2D	[2f	.
.	.	.	.	.	.	.	4b-
=223	=223	=223	=223	=223	=223	=223	=223
0F	4c	2F]	1f]	0FF	2A	2f]	1a
.	4B-	.	.	.	.	.	.
.	4A	2.A	.	.	2c	1c	.
.	4G	.	.	.	.	.	.
.	1F	.	1a	.	2.A	.	[1cc
.	.	4B-	.	.	.	.	.
.	.	[2c	.	.	.	[2f	.
.	.	.	.	.	4B-	.	.
=224	=224	=224	=224	=224	=224	=224	=224
0C	0G	2c]	0g	0C	1c	2f]	0cc]
.	.	4B-	.	.	.	4e	.
.	.	4A	.	.	.	4d	.
.	.	2G	.	.	1c	1e	.
.	.	2c	.	.	.	.	.
=225	=225	=225	=225	=225	=225	=225	=225
0F	0F	0c	0a	0FF	0A	0f	0cc
==	==	==	==	==	==	==	==
*-	*-	*-	*-	*-	*-	*-	*-
!!!CDT: 1525/^1526/-1594/2/2
!!!OCY: Italia
!!!AGN: Mass (Parody)
!!!AST: renaissance, vocal
!!!ASW: Motet 1572 (Palestrina)
!!!PWK: Masses, Book 8vce
!!!RNB: Cadence finals: C
!!!YOR: Le Opere Complete, v. 30, p. 1
!!!YOO: Rome, Italy: Fratelli Scalera
!!!END: 1992//
!!!EED: John Miller
!!!YEC: Copyright 2000, John Miller
!!!YEN: United States of America
!!!YEM: Rights to all derivative electronic formats reserved.
!!!YEM: Refer to licensing agreement for further details.
!!!YEM: This file must be accompanied by the licensing agreement.
!!!YEM: A copy of the licensing agreement may be found at http://www.music-cog.ohio-state.edu/HumdrumDatabases/Palestrina/license.txt
!!!EMD: converted to Humdrum by Bret Aarden
